svgs/thin/person-running.svg

<svg xmlns="http://www.w3.org/2000/svg" viewBox="0 0 448 512"><!--! Font Awesome Pro 6.3.0 by @fontawesome - https://fontawesome.com License - https://fontawesome.com/license (Commercial License) Copyright 2023 Fonticons, Inc. --><path d="M300 104C328.7 104 352 80.71 352 52S328.7 0 300 0c-28.71 0-52 23.29-52 52S271.3 104 300 104zM300 16c19.85 0 36 16.15 36 36c0 19.85-16.15 36-36 36c-19.85 0-36-16.15-36-36C264 32.15 280.2 16 300 16zM162.4 364.6l-15.5 24.31C142.5 395.8 134.9 400 126.7 400H48C39.17 400 32 392.8 32 384s7.172-16 16-16h63.13c2.766 0 5.328-1.438 6.797-3.781l24.88-40c2.328-3.75 1.188-8.688-2.578-11C136.5 310.8 131.5 312 129.2 315.8L106.7 352H48c-17.64 0-32 14.34-32 32s14.36 32 32 32h78.7c13.73 0 26.34-6.906 33.73-18.5l15.5-24.31c2.375-3.75 1.281-8.688-2.453-11.06C169.8 359.8 164.9 360.9 162.4 364.6zM400 224h-44l-26.12-53.25c-12.5-25.5-35.38-44.25-61.75-51L197 98.63C189.5 96.84 181.1 95.97 174.5 95.97C153.6 95.97 133.2 102.8 116.3 115.8L76.5 146.3C62.5 157 59.88 177 70.63 191.1c6.291 8.193 15.79 12.49 25.4 12.49c6.807 0 13.67-2.159 19.47-6.616l39.63-30.38c5.92-4.488 13.01-6.787 19.53-6.787c2.018 0 3.981 .219 5.841 .6623l14.62 4.25l-37.5 87.5c-12.62 29.38-1.25 64 26.38 80.25l85 50.13l-27.5 87.75c-5.25 16.88 4.125 34.88 21 40.13C265.6 511.5 268.9 512 272 512c13.62 0 26.25-8.75 30.5-22.5l31.75-101c5.875-20.75-3-43.13-21.75-54.38l-61.13-36.12l31.25-78.38l20.25 41.5C310.9 277.4 327.9 288 345.1 288H400c17.62 0 32-14.38 32-32C432 238.3 417.6 224 400 224zM400 272h-54c-11.93 0-23.49-7.211-28.75-17.89l-20.25-41.5c-2.688-5.51-8.279-8.982-14.38-8.982c-.1992 0-.4004 .0039-.5996 .0098c-6.328 .2363-11.92 4.182-14.27 10.06l-31.25 78.38c-2.922 7.326-.0684 15.69 6.721 19.7l61.03 36.07c12.51 7.508 18.51 22.43 14.72 35.86l-31.77 101.1C285.1 491.5 279 496 272 496c-1.514 0-3.113-.2559-4.746-.7793c-4.062-1.264-7.391-4.045-9.369-7.834c-1.99-3.807-2.383-8.16-1.117-12.23l27.5-87.75c2.225-7.096-.7344-14.79-7.141-18.57L192.1 318.7C171.3 306.5 162.8 280.6 172.3 258.6l37.5-87.5C211.6 166.8 211.5 162.1 209.6 157.9C207.6 153.8 203.1 150.7 199.6 149.4L184.2 144.9C181.1 144.2 177.9 143.8 174.7 143.8c-10.29 0-20.66 3.564-29.27 10.09L105.8 184.3c-2.816 2.164-6.182 3.307-9.729 3.307c-5.035 0-9.668-2.271-12.67-6.18C77.99 174.4 79.28 164.3 86.24 158.9l39.74-30.49C140.1 117.7 156.8 111.1 174.5 111.1c6.293 0 12.61 .748 17.94 1.996l71.71 21.29c21.84 5.588 41.03 21.49 51.35 42.55l26.04 53.3C344.2 236.6 349.8 240 355.9 240H400C408.8 240 416 247.2 416 256S408.8 272 400 272z"/></svg>

<svg xmlns="http://www.w3.org/2000/svg" viewBox="0 0 448 512"><!-- Font Awesome Pro 6.0.0-alpha2 by @fontawesome - https://fontawesome.com License - https://fontawesome.com/license (Commercial License) --><path d="M300 104C328.709 104 352 80.709 352 52S328.709 0 300 0C271.293 0 248 23.291 248 52S271.293 104 300 104ZM300 16C319.852 16 336 32.148 336 52C336 71.85 319.852 88 300 88C280.15 88 264 71.85 264 52C264 32.148 280.15 16 300 16ZM162.438 364.562L146.938 388.875C142.5 395.844 134.938 400 126.703 400H48C39.172 400 32 392.812 32 384S39.172 368 48 368H111.125C113.891 368 116.453 366.562 117.922 364.219L142.797 324.219C145.125 320.469 143.984 315.531 140.219 313.219C136.531 310.844 131.547 312.031 129.203 315.781L106.672 352H48C30.359 352 16 366.344 16 384S30.359 416 48 416H126.703C140.438 416 153.047 409.094 160.438 397.5L175.938 373.188C178.313 369.438 177.219 364.5 173.484 362.125C169.828 359.781 164.859 360.875 162.438 364.562ZM400 224H356L329.875 170.75C317.375 145.25 294.5 126.5 268.125 119.75L197 98.625C189.545 96.844 181.998 95.967 174.51 95.967C153.627 95.965 133.18 102.775 116.25 115.75L76.5 146.25C62.5 157 59.875 177 70.625 191.125C76.916 199.318 86.42 203.615 96.027 203.615C102.834 203.615 109.693 201.457 115.5 197L155.125 166.625C161.045 162.137 168.133 159.838 174.66 159.838C176.678 159.838 178.641 160.057 180.5 160.5L195.125 164.75L157.625 252.25C145 281.625 156.375 316.25 184 332.5L269 382.625L241.5 470.375C236.25 487.25 245.625 505.25 262.5 510.5C265.625 511.5 268.875 512 272 512C285.625 512 298.25 503.25 302.5 489.5L334.25 388.5C340.125 367.75 331.25 345.375 312.5 334.125L251.375 298L282.625 219.625L302.875 261.125C310.875 277.375 327.875 288 346 288H400C417.625 288 432 273.625 432 256C432 238.25 417.625 224 400 224ZM400 272H346C334.074 272 322.514 264.789 317.254 254.107L297.004 212.607C294.316 207.098 288.725 203.625 282.629 203.625C282.43 203.625 282.229 203.629 282.029 203.635C275.701 203.871 270.107 207.816 267.764 213.699L236.514 292.074C233.592 299.4 236.445 307.762 243.234 311.773L304.268 347.844C316.781 355.352 322.781 370.277 318.986 383.701L287.215 484.775C285.139 491.488 279.025 496 272 496C270.486 496 268.887 495.744 267.254 495.221C263.191 493.957 259.863 491.176 257.885 487.387C255.895 483.58 255.502 479.227 256.768 475.16L284.268 387.408C286.492 380.313 283.533 372.619 277.127 368.842L192.113 318.709C171.346 306.492 162.84 280.639 172.332 258.553L209.832 171.053C211.637 166.84 211.549 162.057 209.592 157.912C207.633 153.77 203.99 150.664 199.59 149.385L184.207 144.934C181.148 144.207 177.936 143.838 174.66 143.838C164.367 143.838 153.998 147.402 145.391 153.926L105.756 184.309C102.939 186.473 99.574 187.615 96.027 187.615C90.992 187.615 86.359 185.344 83.357 181.436C77.986 174.377 79.281 164.287 86.24 158.943L125.982 128.449C140.055 117.666 156.836 111.965 174.51 111.967C180.803 111.967 187.119 112.715 192.445 113.963L264.158 135.25C285.994 140.838 305.189 156.742 315.512 177.797L341.635 231.047C344.324 236.527 349.896 240 356 240H400C408.822 240 416 247.178 416 256S408.822 272 400 272Z"/></svg>
